!!!OTL: Sailor Bold
!!!ONM: 44b.
**kern
*clefG2
*k[b-e-]
*B-:
*M3/4
*MM92
{8B-
=1
8B-
8d
4.f
(16c
16d)
=2
8e-
8d
4.B-}
{8B-
=3
8d
8e-
4.f
8B-
=4
8d
8e-
4.f}
{8d
=5
8g
8a
4.b-
8d
=6
8e-
8g
4.f}
{8B-
=7
8d
8e-
4.f
16c
16d
=8
8e-
8d
4.B-
8r}
==
*-
!!!CNT: Folksongs of Maritime Canada
!!!MRD: 1928///-1932///
!!!OCL: Helen Creighton
!!!YOR: Songs and Ballads from Nova Scotia
!!!PPR: J.M. Dent & Sons, Limited
!!!PPP: Toronto, Canada
!!!PDT: 1932///
!!!reprint: Dover Publications, 1992: ISBN 0-486-21703-5
!!!ENC1: Craig Stuart Sapp (music and bibliographic data)                       
!!!ENC2: Marcus Pearce (phrase markings and key designations)                   
!!!ENC3: Darrell Conklin (phrase markings and key designations)   
!!!END: 2002/04/10/
!!!EEV: 2004/06/05
!!!MPN: Mrs. Charles Kelly
!!!PPG: 90
!!!EFL: 45/152
!!!ARE: Canada; Nova Scotia
!!!verses: 5
!!!VTS: 912445757
